;FLAVOR:Marlin
;TIME:7798
;Filament used: 5.66023m
;Layer height: 0.15
;Generated with Cura_SteamEngine 3.2.1
M190 S60
M104 S200
M109 S200
M82 ;absolute extrusion mode
G28 ;Home
G1 Z15.0 F6000 ;Move the platform down 15mm
;Prime the extruder
G92 E0
G1 F200 E3
G92 E0
;LAYER_COUNT:400
;LAYER:0
M107
G0 F3600 X22.699 Y114.153 Z0.3
;TYPE:SKIRT
G1 F1800 X23.478 Y114.02 E0.03943
G1 X24.265 Y113.967 E0.07878
G1 X24.806 Y113.977 E0.10577
G1 X29.468 Y114.222 E0.33868
G1 X111.941 Y114.201 E4.45328
G1 X112.321 Y113.821 E4.48009
G1 X112.907 Y113.292 E4.51948
G1 X113.357 Y112.952 E4.54761
G1 X114.781 Y111.954 E4.63437
G1 X115.45 Y111.534 E4.67378
G1 X115.957 Y111.274 E4.7022
G1 X117.539 Y110.535 E4.78932
G1 X118.27 Y110.237 E4.8287
G1 X118.825 Y110.067 E4.85766
G1 X119.335 Y109.931 E4.88399
G1 X160.674 Y38.328 E9.00889
G1 X160.733 Y38.237 E9.0143
G1 X162.709 Y34.358 E9.23149
G1 X163.103 Y33.674 E9.27087
G1 X163.563 Y33.032 E9.31027
G1 X164.087 Y32.441 E9.34968
G1 X164.667 Y31.906 E9.38904
G1 X165.299 Y31.432 E9.42846
G1 X165.975 Y31.024 E9.46785
G1 X166.689 Y30.687 E9.50724
G1 X167.433 Y30.423 E9.54663
G1 X168.201 Y30.237 E9.58605
G1 X168.983 Y30.128 E9.62544
G1 X169.772 Y30.1 E9.66483
G1 X170.56 Y30.151 E9.70422
G1 X171.339 Y30.282 E9.74363
G1 X172.101 Y30.491 E9.78305
G1 X172.837 Y30.776 E9.82243
G1 X173.321 Y31.012 E9.8493
G1 X176.403 Y32.651 E10.02345
G1 X176.641 Y32.783 E10.03702
G1 X179.663 Y34.528 E10.21112
G1 X179.896 Y34.668 E10.22468
G1 X182.857 Y36.518 E10.39887
G1 X183.505 Y36.97 E10.43829
G1 X184.103 Y37.485 E10.47766
G1 X184.647 Y38.058 E10.51708
G1 X185.13 Y38.682 E10.55645
G1 X185.547 Y39.353 E10.59586
G1 X185.894 Y40.062 E10.63524
G1 X186.168 Y40.803 E10.67466
G1 X186.365 Y41.568 E10.71407
G1 X186.484 Y42.348 E10.75344
G1 X186.524 Y43.137 E10.79285
G1 X186.484 Y43.926 E10.83226
G1 X186.364 Y44.706 E10.87164
G1 X186.166 Y45.47 E10.91101
G1 X185.891 Y46.211 E10.95044
G1 X185.543 Y46.92 E10.98985
G1 X185.283 Y47.354 E11.01509
G1 X182.752 Y51.287 E11.24842
G1 X141.505 Y122.729 E15.36407
G1 X141.643 Y123.242 E15.39057
G1 X141.808 Y124.014 E15.42996
G1 X141.88 Y124.587 E15.45877
G1 X142.031 Y126.322 E15.54566
G1 X142.059 Y127.111 E15.58505
G1 X142.031 Y127.673 E15.61312
G1 X141.88 Y129.412 E15.7002
G1 X141.772 Y130.194 E15.73959
G1 X141.643 Y130.757 E15.7684
G1 X141.505 Y131.272 E15.795
G1 X182.726 Y202.705 E19.90961
G1 X185.267 Y206.621 E20.14251
G1 X185.663 Y207.304 E20.1819
G1 X185.987 Y208.024 E20.22129
G1 X186.238 Y208.773 E20.2607
G1 X186.411 Y209.543 E20.30007
G1 X186.505 Y210.328 E20.33952
G1 X186.52 Y211.117 E20.37889
G1 X186.455 Y211.904 E20.41828
G1 X186.31 Y212.68 E20.45767
G1 X186.088 Y213.438 E20.49707
G1 X185.79 Y214.17 E20.5365
G1 X185.42 Y214.867 E20.57587
G1 X184.981 Y215.524 E20.61529
G1 X184.478 Y216.133 E20.6547
G1 X183.917 Y216.687 E20.69404
G1 X183.301 Y217.183 E20.73349
G1 X182.858 Y217.481 E20.76013
G1 X179.898 Y219.331 E20.93427
G1 X179.663 Y219.473 E20.94797
G1 X176.641 Y221.217 E21.12205
G1 X176.405 Y221.347 E21.13549
G1 X173.322 Y222.987 E21.30971
G1 X172.607 Y223.322 E21.3491
G1 X171.862 Y223.583 E21.38848
G1 X171.094 Y223.768 E21.4279
G1 X170.311 Y223.874 E21.46732
G1 X169.522 Y223.9 E21.5067
G1 X168.734 Y223.846 E21.54611
G1 X167.956 Y223.713 E21.58548
G1 X167.195 Y223.502 E21.62488
G1 X166.459 Y223.215 E21.6643
G1 X165.757 Y222.855 E21.70365
G1 X165.094 Y222.425 E21.74308
G1 X164.478 Y221.931 E21.78247
G1 X163.915 Y221.378 E21.82185
G1 X163.411 Y220.77 E21.86125
G1 X162.97 Y220.114 E21.90068
G1 X162.709 Y219.642 E21.92759
G1 X160.592 Y215.486 E22.16028
G1 X119.336 Y144.07 E26.27503
G1 X118.825 Y143.933 E26.30143
G1 X118.074 Y143.691 E26.34079
G1 X117.539 Y143.465 E26.36977
G1 X115.957 Y142.726 E26.45688
G1 X115.259 Y142.356 E26.49629
G1 X114.781 Y142.046 E26.52472
G1 X113.357 Y141.048 E26.61147
G1 X112.734 Y140.563 E26.65086
G1 X112.321 Y140.179 E26.67899
G1 X111.941 Y139.799 E26.70581
G1 X29.468 Y139.778 E30.8204
G1 X24.806 Y140.023 E31.05331
G1 X24.017 Y140.025 E31.09267
G1 X23.231 Y139.946 E31.13208
G1 X22.457 Y139.789 E31.17149
G1 X21.703 Y139.554 E31.21089
G1 X20.977 Y139.244 E31.25027
G1 X20.285 Y138.862 E31.28971
G1 X19.636 Y138.413 E31.32908
G1 X19.036 Y137.9 E31.36846
G1 X18.491 Y137.329 E31.40784
G1 X18.006 Y136.705 E31.44727
G1 X17.586 Y136.036 E31.48668
G1 X17.237 Y135.328 E31.52606
G1 X16.961 Y134.588 E31.56546
G1 X16.761 Y133.824 E31.60487
G1 X16.639 Y133.044 E31.64425
G1 X16.602 Y132.504 E31.67126
G1 X16.481 Y129.015 E31.84543
G1 X16.476 Y128.745 E31.8589
G1 X16.476 Y125.256 E32.03297
G1 X16.481 Y124.986 E32.04644
G1 X16.602 Y121.496 E32.22066
G1 X16.669 Y120.709 E32.26007
G1 X16.815 Y119.933 E32.29946
G1 X17.04 Y119.176 E32.33886
G1 X17.339 Y118.445 E32.37826
G1 X17.711 Y117.749 E32.41764
G1 X18.152 Y117.093 E32.45707
G1 X18.656 Y116.486 E32.49643
G1 X19.22 Y115.932 E32.53588
G1 X19.836 Y115.439 E32.57524
G1 X20.499 Y115.01 E32.61464
G1 X21.202 Y114.65 E32.65404
G1 X21.938 Y114.364 E32.69343
G1 X22.699 Y114.153 E32.73283
G0 F3600 X23.041 Y114.491
G1 F1800 X23.803 Y114.39 E32.77118
G1 X24.785 Y114.376 E32.82018
G1 X29.466 Y114.622 E33.05404
G1 X112.107 Y114.601 E37.17701
G1 X112.604 Y114.104 E37.21208
G1 X113.175 Y113.59 E37.25041
G1 X113.587 Y113.279 E37.27616
G1 X115.011 Y112.281 E37.36292
G1 X115.663 Y111.873 E37.40129
G1 X116.126 Y111.636 E37.42724
G1 X117.708 Y110.897 E37.51435
G1 X118.421 Y110.609 E37.55272
G1 X118.929 Y110.453 E37.57923
G1 X119.598 Y110.274 E37.61378
G1 X161.02 Y38.528 E41.74693
G1 X161.082 Y38.433 E41.75258
G1 X163.065 Y34.54 E41.97055
G1 X163.45 Y33.874 E42.00893
G1 X163.901 Y33.251 E42.0473
G1 X164.415 Y32.678 E42.08571
G1 X164.985 Y32.162 E42.12407
G1 X165.606 Y31.708 E42.16244
G1 X166.27 Y31.321 E42.20079
G1 X166.971 Y31.004 E42.23917
G1 X167.701 Y30.763 E42.27752
G1 X168.453 Y30.598 E42.31593
G1 X169.217 Y30.512 E42.35429
G1 X169.986 Y30.506 E42.39266
G1 X170.752 Y30.58 E42.43105
G1 X171.506 Y30.733 E42.46943
G1 X172.239 Y30.963 E42.50776
G1 X173.134 Y31.365 E42.55671
G1 X176.216 Y33.004 E42.73086
G1 X176.441 Y33.13 E42.74373
G1 X179.463 Y34.875 E42.91783
G1 X179.684 Y35.007 E42.93067
G1 X182.645 Y36.857 E43.10486
G1 X183.275 Y37.298 E43.14322
G1 X183.856 Y37.802 E43.1816
G1 X184.382 Y38.364 E43.22
G1 X184.846 Y38.977 E43.25835
G1 X185.245 Y39.635 E43.29675
G1 X185.573 Y40.33 E43.33509
G1 X185.827 Y41.056 E43.37346
G1 X186.004 Y41.805 E43.41186
G1 X186.102 Y42.568 E43.45024
G1 X186.121 Y43.337 E43.48861
G1 X186.06 Y44.103 E43.52695
G1 X185.92 Y44.86 E43.56536
G1 X185.702 Y45.597 E43.6037
G1 X185.408 Y46.308 E43.64209
G1 X184.947 Y47.138 E43.68945
G1 X182.408 Y51.082 E43.92347
G1 X141.076 Y122.674 E48.04772
G1 X141.256 Y123.346 E48.08242
G1 X141.417 Y124.098 E48.12079
G1 X141.481 Y124.621 E48.14708
G1 X141.632 Y126.356 E48.23397
G1 X141.659 Y127.125 E48.27236
G1 X141.632 Y127.638 E48.29798
G1 X141.481 Y129.377 E48.38507
G1 X141.375 Y130.139 E48.42345
G1 X141.257 Y130.653 E48.44976
G1 X141.076 Y131.328 E48.48463
G1 X182.39 Y202.923 E52.60856
G1 X184.931 Y206.839 E52.84145
G1 X185.316 Y207.505 E52.87983
G1 X185.629 Y208.207 E52.91818
G1 X185.868 Y208.938 E52.95655
G1 X186.03 Y209.69 E52.99493
G1 X186.113 Y210.455 E53.03332
G1 X186.115 Y211.224 E53.07168
G1 X186.038 Y211.989 E53.11004
G1 X185.882 Y212.743 E53.14845
G1 X185.649 Y213.475 E53.18678
G1 X185.341 Y214.18 E53.22516
G1 X184.961 Y214.849 E53.26355
G1 X184.514 Y215.475 E53.30192
G1 X184.005 Y216.051 E53.34027
G1 X183.438 Y216.571 E53.37866
G1 X182.646 Y217.142 E53.42737
G1 X179.686 Y218.992 E53.60151
G1 X179.463 Y219.126 E53.61449
G1 X176.441 Y220.87 E53.78857
G1 X176.217 Y220.994 E53.80134
G1 X173.134 Y222.634 E53.97556
G1 X172.437 Y222.96 E54.01395
G1 X171.71 Y223.211 E54.05232
G1 X170.961 Y223.385 E54.09068
G1 X170.198 Y223.481 E54.12905
G1 X169.429 Y223.497 E54.16742
G1 X168.663 Y223.434 E54.20577
G1 X167.907 Y223.291 E54.24415
G1 X167.17 Y223.07 E54.28254
G1 X166.46 Y222.774 E54.32092
G1 X165.785 Y222.406 E54.35927
G1 X165.151 Y221.97 E54.39766
G1 X164.567 Y221.47 E54.43601
G1 X164.037 Y220.912 E54.47441
G1 X163.568 Y220.303 E54.51276
G1 X163.065 Y219.46 E54.56173
G1 X160.945 Y215.298 E54.79476
G1 X119.599 Y143.726 E58.9185
G1 X118.929 Y143.547 E58.95309
G1 X118.197 Y143.31 E58.99148
G1 X117.708 Y143.103 E59.01797
G1 X116.126 Y142.364 E59.10509
G1 X115.447 Y142.002 E59.14347
G1 X115.011 Y141.719 E59.16941
G1 X113.587 Y140.721 E59.25616
G1 X112.981 Y140.247 E59.29454
G1 X112.604 Y139.896 E59.32024
G1 X112.107 Y139.399 E59.35531
G1 X29.466 Y139.378 E63.47829
G1 X24.785 Y139.624 E63.71214
G1 X24.016 Y139.624 E63.75051
G1 X23.251 Y139.545 E63.78888
G1 X22.498 Y139.386 E63.82727
G1 X21.766 Y139.151 E63.86563
G1 X21.063 Y138.84 E63.90398
G1 X20.395 Y138.458 E63.94237
G1 X19.77 Y138.009 E63.98077
G1 X19.196 Y137.498 E64.01911
G1 X18.678 Y136.93 E64.05746
G1 X18.221 Y136.311 E64.09585
G1 X17.831 Y135.647 E64.13426
G1 X17.512 Y134.948 E64.1726
G1 X17.268 Y134.218 E64.211
G1 X17.101 Y133.468 E64.24933
G1 X17.001 Y132.49 E64.29838
G1 X16.88 Y129.001 E64.47255
G1 X16.876 Y128.745 E64.48532
G1 X16.876 Y125.256 E64.65939
G1 X16.88 Y125 E64.67216
G1 X17.001 Y121.51 E64.84639
G1 X17.068 Y120.743 E64.8848
G1 X17.214 Y119.988 E64.92316
G1 X17.437 Y119.252 E64.96153
G1 X17.736 Y118.543 E64.99992
G1 X18.106 Y117.869 E65.03828
G1 X18.545 Y117.237 E65.07667
G1 X19.046 Y116.654 E65.11502
G1 X19.606 Y116.126 E65.15342
G1 X20.217 Y115.66 E65.19175
G1 X20.873 Y115.259 E65.23011
G1 X21.568 Y114.928 E65.26852
G1 X22.293 Y114.671 E65.30689
G1 X23.041 Y114.491 E65.34528
G0 F3600 X22.644 Y114.989
G1 F1800 X23.377 Y114.841 E65.38258
G1 X24.122 Y114.771 E65.41992
G1 X24.764 Y114.776 E65.45195
G1 X29.445 Y115.022 E65.68581
G1 X112.272 Y115.001 E69.81806
G1 X112.886 Y114.387 E69.86138
G1 X113.443 Y113.888 E69.89869
G1 X113.817 Y113.607 E69.92203
G1 X115.241 Y112.609 E70.00878
G1 X115.875 Y112.213 E70.04608
G1 X116.295 Y111.999 E70.0696
G1 X117.877 Y111.26 E70.15671
G1 X118.571 Y110.98 E70.19404
G1 X119.032 Y110.84 E70.21808
G1 X119.862 Y110.618 E70.26094
G1 X161.367 Y38.728 E74.40238
G1 X161.43 Y38.631 E74.40815
G1 X163.422 Y34.721 E74.62708
G1 X163.796 Y34.074 E74.66437
G1 X164.238 Y33.47 E74.70171
G1 X164.742 Y32.917 E74.73903
G1 X165.301 Y32.421 E74.77632
G1 X165.911 Y31.987 E74.81367
G1 X166.563 Y31.621 E74.85097
G1 X167.251 Y31.326 E74.88832
G1 X167.966 Y31.107 E74.92563
G1 X168.7 Y30.965 E74.96292
G1 X169.446 Y30.902 E75.00027
G1 X170.194 Y30.919 E75.0376
G1 X170.936 Y31.016 E75.07494
G1 X171.663 Y31.192 E75.11225
G1 X172.367 Y31.444 E75.14956
G1 X172.946 Y31.719 E75.18154
G1 X176.028 Y33.358 E75.35569
G1 X176.241 Y33.476 E75.36784
G1 X179.263 Y35.221 E75.54194
G1 X179.472 Y35.346 E75.55409
G1 X182.433 Y37.196 E75.72827
G1 X183.045 Y37.626 E75.76559
G1 X183.608 Y38.119 E75.80292
G1 X184.116 Y38.669 E75.84028
G1 X184.561 Y39.269 E75.87755
G1 X184.94 Y39.914 E75.91487
G1 X185.248 Y40.596 E75.9522
G1 X185.482 Y41.307 E75.98955
G1 X185.638 Y42.038 E76.02684
G1 X185.715 Y42.782 E76.06415
G1 X185.713 Y43.531 E76.10152
G1 X185.63 Y44.274 E76.13882
G1 X185.469 Y45.005 E76.17617
G1 X185.231 Y45.714 E76.21348
G1 X184.918 Y46.393 E76.25078
G1 X184.61 Y46.921 E76.28127
G1 X182.069 Y50.868 E76.51547
G1 X140.647 Y122.617 E80.64875
G1 X140.87 Y123.449 E80.69172
G1 X141.025 Y124.181 E80.72905
G1 X141.083 Y124.656 E80.75292
G1 X141.234 Y126.391 E80.83981
G1 X141.259 Y127.139 E80.87715
G1 X141.234 Y127.604 E80.90038
G1 X141.083 Y129.343 E80.98747
G1 X140.978 Y130.083 E81.02475
G1 X140.87 Y130.55 E81.04867
G1 X140.646 Y131.384 E81.09175
G1 X182.044 Y203.123 E85.224
G1 X184.596 Y207.056 E85.4579
G1 X184.969 Y207.705 E85.49525
G1 X185.271 Y208.389 E85.53255
G1 X185.498 Y209.102 E85.56988
G1 X185.648 Y209.835 E85.60721
G1 X185.718 Y210.58 E85.64454
G1 X185.709 Y211.328 E85.68186
G1 X185.62 Y212.07 E85.71915
G1 X185.452 Y212.799 E85.75647
G1 X185.207 Y213.506 E85.7938
G1 X184.889 Y214.183 E85.83112
G1 X184.5 Y214.822 E85.86844
G1 X184.045 Y215.416 E85.90577
G1 X183.529 Y215.958 E85.9431
G1 X182.958 Y216.441 E85.98042
G1 X182.434 Y216.803 E86.01219
G1 X179.474 Y218.653 E86.18633
G1 X179.263 Y218.78 E86.19862
G1 X176.241 Y220.524 E86.37269
G1 X176.029 Y220.641 E86.38478
G1 X172.946 Y222.281 E86.55899
G1 X172.268 Y222.597 E86.59631
G1 X171.56 Y222.838 E86.63363
G1 X170.83 Y223.002 E86.67095
G1 X170.087 Y223.088 E86.70827
G1 X169.339 Y223.094 E86.74559
G1 X168.595 Y223.02 E86.78289
G1 X167.863 Y222.867 E86.8202
G1 X167.151 Y222.636 E86.85754
G1 X166.468 Y222.331 E86.89486
G1 X165.821 Y221.955 E86.9322
G1 X165.218 Y221.512 E86.96953
G1 X164.666 Y221.007 E87.00685
G1 X164.171 Y220.447 E87.04414
G1 X163.739 Y219.836 E87.08147
G1 X163.422 Y219.279 E87.11345
G1 X161.294 Y215.103 E87.34728
G1 X119.863 Y143.382 E91.47957
G1 X119.032 Y143.16 E91.52248
G1 X118.321 Y142.929 E91.55978
G1 X117.877 Y142.74 E91.58385
G1 X116.295 Y142.001 E91.67097
G1 X115.636 Y141.649 E91.70824
G1 X115.241 Y141.391 E91.73178
G1 X113.817 Y140.393 E91.81853
G1 X113.228 Y139.932 E91.85585
G1 X112.886 Y139.613 E91.87918
G1 X112.272 Y138.999 E91.9225
G1 X29.445 Y138.978 E96.05476
G1 X24.764 Y139.224 E96.28862
G1 X24.016 Y139.224 E96.32593
G1 X23.273 Y139.143 E96.36322
G1 X22.542 Y138.984 E96.40055
G1 X21.832 Y138.747 E96.43789
G1 X21.152 Y138.436 E96.47519
G1 X20.508 Y138.054 E96.51255
G1 X19.909 Y137.606 E96.54987
G1 X19.362 Y137.097 E96.58715
G1 X18.872 Y136.532 E96.62446
G1 X18.444 Y135.917 E96.66184
G1 X18.085 Y135.261 E96.69915
G1 X17.798 Y134.57 E96.73648
G1 X17.587 Y133.853 E96.77376
G1 X17.453 Y133.117 E96.81109
G1 X17.401 Y132.477 E96.84312
G1 X17.28 Y128.988 E97.01729
G1 X17.276 Y128.745 E97.02942
G1 X17.276 Y125.256 E97.20349
G1 X17.28 Y125.013 E97.21561
G1 X17.401 Y121.523 E97.38983
G1 X17.467 Y120.778 E97.42715
G1 X17.612 Y120.044 E97.46447
G1 X17.834 Y119.33 E97.50178
G1 X18.132 Y118.644 E97.53909
G1 X18.501 Y117.993 E97.57642
G1 X18.937 Y117.385 E97.61375
G1 X19.436 Y116.828 E97.65106
G1 X19.991 Y116.327 E97.68836
G1 X20.597 Y115.887 E97.72572
G1 X21.246 Y115.515 E97.76304
G1 X21.931 Y115.215 E97.80035
G1 X22.644 Y114.989 E97.83767
G0 F3600 X22.99 Y115.318
G1 F1800 X23.707 Y115.202 E97.87391
G1 X24.743 Y115.175 E97.92561
G1 X29.443 Y115.422 E98.16042
G1 X112.438 Y115.401 E102.30105
G1 X113.169 Y114.67 E102.35263
G1 X113.71 Y114.186 E102.38885
G1 X114.046 Y113.934 E102.4098
G1 X115.47 Y112.936 E102.49655
G1 X116.087 Y112.553 E102.53278
G1 X116.465 Y112.361 E102.55394
G1 X118.047 Y111.622 E102.64105
G1 X118.721 Y111.352 E102.67727
G1 X119.135 Y111.226 E102.69886
G1 X120.125 Y110.961 E102.74999
G1 X161.713 Y38.928 E106.89968
G1 X161.779 Y38.827 E106.9057
G1 X163.778 Y34.903 E107.12541
G1 X164.143 Y34.275 E107.16165
G1 X164.575 Y33.691 E107.19789
G1 X165.068 Y33.158 E107.23411
G1 X165.617 Y32.682 E107.27036
G1 X166.215 Y32.269 E107.30662
G1 X166.854 Y31.925 E107.34283
G1 X167.528 Y31.653 E107.37909
G1 X168.227 Y31.456 E107.41532
G1 X168.943 Y31.338 E107.45152
G1 X169.669 Y31.299 E107.48779
G1 X170.394 Y31.34 E107.52402
G1 X171.11 Y31.461 E107.56025
G1 X171.809 Y31.659 E107.5965
G1 X172.758 Y32.072 E107.64813
G1 X175.84 Y33.711 E107.82228
G1 X176.041 Y33.822 E107.83374
G1 X179.063 Y35.567 E108.00784
G1 X179.26 Y35.686 E108.01932
G1 X182.221 Y37.536 E108.19351
G1 X182.815 Y37.954 E108.22974
G1 X183.359 Y38.435 E108.26597
G1 X183.848 Y38.973 E108.30224
G1 X184.274 Y39.561 E108.33847
G1 X184.633 Y40.192 E108.37469
G1 X184.92 Y40.859 E108.41091
G1 X185.132 Y41.554 E108.44716
G1 X185.267 Y42.268 E108.48342
G1 X185.322 Y42.992 E108.51964
G1 X185.298 Y43.718 E108.55588
G1 X185.194 Y44.437 E108.59213
G1 X185.011 Y45.14 E108.62837
G1 X184.753 Y45.819 E108.66461
G1 X184.274 Y46.705 E108.71486
G1 X181.726 Y50.664 E108.94974
G1 X140.218 Y122.56 E113.09152
G1 X140.484 Y123.553 E113.1428
G1 X140.633 Y124.264 E113.17905
G1 X140.684 Y124.691 E113.2005
G1 X140.835 Y126.426 E113.28739
G1 X140.858 Y127.152 E113.32363
G1 X140.835 Y127.569 E113.34446
G1 X140.684 Y129.308 E113.43155
G1 X140.582 Y130.027 E113.46778
G1 X140.484 Y130.446 E113.48925
G1 X140.217 Y131.44 E113.54059
G1 X181.711 Y203.347 E117.68249
G1 X184.26 Y207.274 E117.91607
