;FLAVOR:Marlin
;TIME:563
;Filament used: 0.630993m
;Layer height: 0.15
;Generated with Cura_SteamEngine 3.2.1
M190 S60
M104 S200
M109 S200
M82 ;absolute extrusion mode
G28 ;Home
G1 Z15.0 F6000 ;Move the platform down 15mm
;Prime the extruder
G92 E0
G1 F200 E3
G92 E0
;LAYER_COUNT:16
;LAYER:0
M107
G0 F3600 X82.656 Y69.364 Z0.3
;TYPE:SKIRT
G1 F1800 X84.179 Y67.529 E0.11897
G1 X84.449 Y67.221 E0.13941
G1 X86.067 Y65.468 E0.25842
G1 X86.354 Y65.173 E0.27896
G1 X88.061 Y63.509 E0.39789
G1 X88.371 Y63.223 E0.41893
G1 X90.165 Y61.654 E0.53783
G1 X90.483 Y61.39 E0.55845
G1 X92.359 Y59.917 E0.67745
G1 X92.691 Y59.67 E0.6981
G1 X94.642 Y58.299 E0.81706
G1 X94.994 Y58.066 E0.83812
G1 X97.017 Y56.802 E0.95713
G1 X97.366 Y56.596 E0.97735
G1 X99.45 Y55.44 E1.09625
G1 X99.827 Y55.244 E1.11744
G1 X101.973 Y54.202 E1.23646
G1 X102.345 Y54.034 E1.25683
G1 X104.54 Y53.107 E1.3757
G1 X104.93 Y52.954 E1.3966
G1 X107.174 Y52.145 E1.51561
G1 X107.565 Y52.016 E1.53615
G1 X109.848 Y51.327 E1.65512
G1 X110.25 Y51.217 E1.67592
G1 X112.565 Y50.651 E1.79481
G1 X112.975 Y50.562 E1.81575
G1 X115.319 Y50.121 E1.93474
G1 X115.724 Y50.056 E1.9552
G1 X118.088 Y49.739 E2.0742
G1 X118.503 Y49.695 E2.09502
G1 X120.879 Y49.505 E2.21394
G1 X121.295 Y49.483 E2.23472
G1 X123.678 Y49.42 E2.35365
G1 X124.467 Y49.439 E2.39303
G1 X125.251 Y49.538 E2.43245
G1 X126.02 Y49.715 E2.47182
G1 X126.768 Y49.97 E2.51125
G1 X127.486 Y50.298 E2.55063
G1 X128.167 Y50.698 E2.59003
G1 X128.804 Y51.165 E2.62944
G1 X129.391 Y51.693 E2.66883
G1 X129.921 Y52.278 E2.70821
G1 X130.39 Y52.914 E2.74763
G1 X130.791 Y53.594 E2.78702
G1 X131.122 Y54.311 E2.82642
G1 X131.379 Y55.057 E2.86578
G1 X131.559 Y55.826 E2.90518
G1 X131.66 Y56.61 E2.94462
G1 X131.684 Y57.217 E2.97493
G1 X131.684 Y59.34 E3.08084
G1 X131.644 Y60.129 E3.12026
G1 X131.525 Y60.909 E3.15962
G1 X131.327 Y61.674 E3.19905
G1 X131.053 Y62.414 E3.23842
G1 X130.705 Y63.123 E3.27782
G1 X130.287 Y63.794 E3.31726
G1 X129.804 Y64.418 E3.35663
G1 X129.261 Y64.991 E3.39601
G1 X128.662 Y65.506 E3.43542
G1 X128.014 Y65.957 E3.47481
G1 X127.323 Y66.341 E3.51425
G1 X126.598 Y66.653 E3.55363
G1 X125.845 Y66.89 E3.59301
G1 X125.071 Y67.049 E3.63243
G1 X124.129 Y67.136 E3.67963
G1 X121.765 Y67.21 E3.79763
G1 X119.93 Y67.369 E3.88952
G1 X118.132 Y67.621 E3.9801
G1 X116.32 Y67.973 E4.07219
G1 X114.511 Y68.426 E4.16523
G1 X112.735 Y68.973 E4.25794
G1 X111.004 Y69.608 E4.34993
G1 X109.285 Y70.348 E4.4433
G1 X107.606 Y71.176 E4.5367
G1 X106.012 Y72.074 E4.62797
G1 X104.128 Y73.286 E4.73973
G1 X102.636 Y74.37 E4.83174
G1 X101.173 Y75.559 E4.9258
G1 X100.037 Y76.577 E5.0019
G1 X98.707 Y77.895 E5.09532
G1 X97.204 Y79.569 E5.20756
G1 X96.061 Y81.003 E5.29904
G1 X94.974 Y82.525 E5.39235
G1 X93.971 Y84.104 E5.48568
G1 X93.057 Y85.728 E5.57865
G1 X92.229 Y87.404 E5.67192
G1 X91.497 Y89.107 E5.76439
G1 X90.861 Y90.843 E5.85663
G1 X90.315 Y92.615 E5.94914
G1 X89.811 Y94.666 E6.05451
G1 X89.246 Y98.138 E6.23001
G1 X89.073 Y100.192 E6.33284
G1 X89.026 Y101.976 E6.42188
G1 X89.094 Y104.118 E6.5288
G1 X89.253 Y105.954 E6.62074
G1 X89.508 Y107.77 E6.71223
G1 X89.854 Y109.549 E6.80265
G1 X90.307 Y111.364 E6.89597
G1 X90.861 Y113.159 E6.9897
G1 X91.49 Y114.875 E7.08088
G1 X92.232 Y116.599 E7.17452
G1 X93.049 Y118.256 E7.26669
G1 X94.149 Y120.182 E7.37734
G1 X95.148 Y121.723 E7.46897
G1 X96.271 Y123.268 E7.56426
G1 X97.437 Y124.705 E7.65658
G1 X98.461 Y125.847 E7.73311
G1 X99.779 Y127.177 E7.82652
G1 X101.448 Y128.675 E7.93841
G1 X102.886 Y129.823 E8.03021
G1 X104.409 Y130.909 E8.12353
G1 X105.992 Y131.914 E8.21708
G1 X107.616 Y132.829 E8.31008
G1 X109.288 Y133.655 E8.40312
G1 X110.985 Y134.384 E8.49526
G1 X112.738 Y135.027 E8.58842
G1 X114.493 Y135.568 E8.68004
G1 X116.55 Y136.073 E8.78571
G1 X120.022 Y136.638 E8.96121
G1 X122.074 Y136.811 E9.06395
G1 X124.09 Y136.864 E9.16456
G1 X124.877 Y136.924 E9.20394
G1 X125.654 Y137.065 E9.24333
G1 X126.413 Y137.282 E9.28272
G1 X127.146 Y137.576 E9.32212
G1 X127.846 Y137.942 E9.36153
G1 X128.505 Y138.377 E9.40092
G1 X129.117 Y138.877 E9.44035
G1 X129.675 Y139.435 E9.47972
G1 X130.173 Y140.048 E9.51912
G1 X130.608 Y140.707 E9.55852
G1 X130.973 Y141.407 E9.5979
G1 X131.266 Y142.141 E9.63733
G1 X131.483 Y142.9 E9.67672
G1 X131.622 Y143.677 E9.7161
G1 X131.684 Y144.661 E9.76529
G1 X131.684 Y146.783 E9.87115
G1 X131.644 Y147.572 E9.91057
G1 X131.525 Y148.352 E9.94993
G1 X131.327 Y149.117 E9.98935
G1 X131.053 Y149.857 E10.02872
G1 X130.705 Y150.566 E10.06813
G1 X130.287 Y151.237 E10.10757
G1 X129.804 Y151.861 E10.14693
G1 X129.261 Y152.434 E10.18632
G1 X128.662 Y152.949 E10.22573
G1 X128.014 Y153.4 E10.26512
G1 X127.323 Y153.784 E10.30456
G1 X126.598 Y154.096 E10.34394
G1 X125.845 Y154.333 E10.38332
G1 X125.071 Y154.492 E10.42274
G1 X124.286 Y154.573 E10.46211
G1 X123.678 Y154.58 E10.49245
G1 X121.295 Y154.517 E10.61138
G1 X120.879 Y154.495 E10.63216
G1 X118.503 Y154.305 E10.75108
G1 X118.088 Y154.261 E10.7719
G1 X115.724 Y153.944 E10.8909
G1 X115.319 Y153.879 E10.91136
G1 X112.975 Y153.438 E11.03035
G1 X112.565 Y153.349 E11.05128
G1 X110.25 Y152.783 E11.17018
G1 X109.848 Y152.673 E11.19098
G1 X107.565 Y151.984 E11.30995
G1 X107.174 Y151.855 E11.33049
G1 X104.93 Y151.046 E11.4495
G1 X104.54 Y150.893 E11.4704
G1 X102.345 Y149.966 E11.58927
G1 X101.973 Y149.798 E11.60964
G1 X99.827 Y148.756 E11.72865
G1 X99.45 Y148.56 E11.74985
G1 X97.366 Y147.404 E11.86875
G1 X97.017 Y147.198 E11.88897
G1 X94.994 Y145.934 E12.00798
G1 X94.642 Y145.701 E12.02904
G1 X92.691 Y144.33 E12.148
G1 X92.359 Y144.083 E12.16865
G1 X90.483 Y142.61 E12.28764
G1 X90.165 Y142.346 E12.30826
G1 X88.371 Y140.777 E12.42717
G1 X88.063 Y140.493 E12.44807
G1 X86.355 Y138.829 E12.56704
G1 X86.065 Y138.531 E12.58778
G1 X84.448 Y136.778 E12.70676
G1 X84.179 Y136.471 E12.72713
G1 X82.656 Y134.636 E12.8461
G1 X82.395 Y134.304 E12.86717
G1 X80.974 Y132.39 E12.9861
G1 X80.738 Y132.053 E13.00663
G1 X79.42 Y130.067 E13.12554
G1 X79.2 Y129.715 E13.14625
G1 X77.989 Y127.661 E13.26521
G1 X77.786 Y127.295 E13.28609
G1 X76.687 Y125.179 E13.40505
G1 X76.505 Y124.805 E13.4258
G1 X75.521 Y122.635 E13.54467
G1 X75.361 Y122.255 E13.56524
G1 X74.492 Y120.033 E13.68427
G1 X74.351 Y119.643 E13.70496
G1 X73.602 Y117.38 E13.82389
G1 X73.482 Y116.98 E13.84472
G1 X72.855 Y114.68 E13.96366
G1 X72.756 Y114.277 E13.98436
G1 X72.252 Y111.946 E14.10334
G1 X72.175 Y111.538 E14.12406
G1 X71.796 Y109.184 E14.24301
G1 X71.741 Y108.775 E14.2636
G1 X71.487 Y106.404 E14.38257
G1 X71.454 Y105.989 E14.40333
G1 X71.327 Y103.609 E14.52224
G1 X71.316 Y103.193 E14.543
G1 X71.316 Y100.808 E14.66199
G1 X71.327 Y100.393 E14.6827
G1 X71.454 Y98.012 E14.80166
G1 X71.487 Y97.596 E14.82248
G1 X71.741 Y95.225 E14.94145
G1 X71.796 Y94.816 E14.96204
G1 X72.175 Y92.462 E15.08099
G1 X72.253 Y92.05 E15.10191
G1 X72.758 Y89.719 E15.2209
G1 X72.855 Y89.323 E15.24124
G1 X73.481 Y87.023 E15.36016
G1 X73.602 Y86.62 E15.38116
G1 X74.351 Y84.357 E15.50008
G1 X74.492 Y83.967 E15.52077
G1 X75.361 Y81.745 E15.6398
G1 X75.521 Y81.365 E15.66037
G1 X76.505 Y79.195 E15.77925
G1 X76.687 Y78.821 E15.8
G1 X77.786 Y76.705 E15.91895
G1 X77.989 Y76.339 E15.93983
G1 X79.2 Y74.285 E16.05879
G1 X79.42 Y73.933 E16.0795
G1 X80.738 Y71.947 E16.19842
G1 X80.974 Y71.61 E16.21894
G1 X82.395 Y69.696 E16.33787
G1 X82.656 Y69.364 E16.35894
G0 F3600 X82.964 Y69.62
G1 F1800 X84.487 Y67.785 E16.47792
G1 X84.743 Y67.492 E16.49733
G1 X86.361 Y65.739 E16.61634
G1 X86.634 Y65.459 E16.63585
G1 X88.341 Y63.795 E16.75478
G1 X88.634 Y63.524 E16.7747
G1 X90.428 Y61.955 E16.8936
G1 X90.73 Y61.705 E16.91316
G1 X92.606 Y60.232 E17.03216
G1 X92.921 Y59.997 E17.05176
G1 X94.872 Y58.626 E17.17073
G1 X95.206 Y58.405 E17.19071
G1 X97.229 Y57.141 E17.30972
G1 X97.56 Y56.946 E17.32889
G1 X99.644 Y55.79 E17.44778
G1 X100.002 Y55.604 E17.46791
G1 X102.148 Y54.562 E17.58693
G1 X102.501 Y54.402 E17.60626
G1 X104.696 Y53.475 E17.72514
G1 X105.065 Y53.331 E17.7449
G1 X107.309 Y52.522 E17.86391
G1 X107.681 Y52.399 E17.88345
G1 X109.964 Y51.71 E18.00243
G1 X110.345 Y51.606 E18.02213
G1 X112.66 Y51.04 E18.14103
G1 X113.049 Y50.956 E18.16088
G1 X115.393 Y50.515 E18.27988
G1 X115.778 Y50.453 E18.29933
G1 X118.142 Y50.136 E18.41833
G1 X118.535 Y50.094 E18.43805
G1 X120.911 Y49.904 E18.55696
G1 X121.305 Y49.883 E18.57665
G1 X123.688 Y49.82 E18.69558
G1 X124.457 Y49.839 E18.73396
G1 X125.22 Y49.939 E18.77235
G1 X125.968 Y50.117 E18.81071
G1 X126.694 Y50.371 E18.84908
G1 X127.389 Y50.7 E18.88744
G1 X128.047 Y51.099 E18.92583
G1 X128.66 Y51.564 E18.96422
G1 X129.221 Y52.09 E19.00259
G1 X129.724 Y52.672 E19.04096
G1 X130.164 Y53.303 E19.07934
G1 X130.536 Y53.976 E19.11771
G1 X130.837 Y54.684 E19.15609
G1 X131.062 Y55.419 E19.19444
G1 X131.21 Y56.174 E19.23282
G1 X131.284 Y57.217 E19.28499
G1 X131.284 Y59.34 E19.39091
G1 X131.244 Y60.108 E19.42927
G1 X131.125 Y60.868 E19.46765
G1 X130.927 Y61.611 E19.50601
G1 X130.653 Y62.33 E19.5444
G1 X130.306 Y63.016 E19.58276
G1 X129.89 Y63.663 E19.62113
G1 X129.409 Y64.263 E19.6595
G1 X128.868 Y64.81 E19.69788
G1 X128.273 Y65.298 E19.73627
G1 X127.631 Y65.721 E19.77463
G1 X126.948 Y66.076 E19.81303
G1 X126.233 Y66.357 E19.85136
G1 X125.491 Y66.563 E19.88978
G1 X124.733 Y66.691 E19.92813
G1 X124.116 Y66.736 E19.95899
G1 X121.736 Y66.811 E20.07779
G1 X119.898 Y66.97 E20.16983
G1 X118.054 Y67.228 E20.26272
G1 X116.243 Y67.58 E20.35477
G1 X114.406 Y68.04 E20.44924
G1 X112.612 Y68.593 E20.5429
G1 X110.841 Y69.243 E20.63702
G1 X109.121 Y69.983 E20.73044
G1 X107.419 Y70.822 E20.82511
G1 X105.805 Y71.731 E20.91752
G1 X103.914 Y72.948 E21.02971
G1 X102.38 Y74.063 E21.12433
G1 X100.915 Y75.252 E21.21846
G1 X99.761 Y76.288 E21.29583
G1 X98.419 Y77.618 E21.39009
G1 X96.91 Y79.298 E21.50275
G1 X95.741 Y80.764 E21.5963
G1 X94.635 Y82.313 E21.69126
G1 X93.629 Y83.896 E21.78483
G1 X92.7 Y85.548 E21.87939
G1 X91.871 Y87.224 E21.97267
G1 X91.126 Y88.959 E22.06688
G1 X90.475 Y90.737 E22.16134
G1 X89.93 Y92.502 E22.2535
G1 X89.419 Y94.582 E22.36036
G1 X88.85 Y98.08 E22.53717
G1 X88.673 Y100.182 E22.64241
G1 X88.626 Y101.978 E22.73204
G1 X88.695 Y104.147 E22.84031
G1 X88.854 Y105.988 E22.9325
G1 X89.111 Y107.824 E23.02499
G1 X89.466 Y109.648 E23.11769
G1 X89.926 Y111.486 E23.21222
G1 X90.475 Y113.266 E23.30515
G1 X91.124 Y115.038 E23.3993
G1 X91.867 Y116.763 E23.49301
G1 X92.694 Y118.44 E23.58629
G1 X93.807 Y120.39 E23.69831
G1 X94.826 Y121.963 E23.79181
G1 X95.938 Y123.492 E23.88614
G1 X97.141 Y124.974 E23.98137
G1 X98.172 Y126.123 E24.05839
G1 X99.494 Y127.458 E24.15212
G1 X101.195 Y128.986 E24.26619
G1 X102.646 Y130.144 E24.35881
G1 X104.183 Y131.24 E24.45299
G1 X105.781 Y132.255 E24.54744
G1 X107.428 Y133.183 E24.64175
G1 X109.108 Y134.013 E24.73524
G1 X110.854 Y134.763 E24.83005
G1 X112.597 Y135.402 E24.92266
G1 X114.397 Y135.957 E25.01664
G1 X116.466 Y136.465 E25.12293
G1 X119.963 Y137.034 E25.29969
G1 X122.066 Y137.211 E25.40498
G1 X124.079 Y137.264 E25.50544
G1 X124.846 Y137.324 E25.54382
G1 X125.602 Y137.463 E25.58217
G1 X126.34 Y137.681 E25.62056
G1 X127.052 Y137.973 E25.65896
G1 X127.729 Y138.338 E25.69733
G1 X128.364 Y138.771 E25.73567
G1 X128.951 Y139.268 E25.77405
G1 X129.484 Y139.823 E25.81244
G1 X129.956 Y140.431 E25.85084
G1 X130.362 Y141.084 E25.8892
G1 X130.698 Y141.775 E25.92753
G1 X130.961 Y142.498 E25.96592
G1 X131.147 Y143.245 E26.00432
G1 X131.255 Y144.006 E26.04267
G1 X131.284 Y144.661 E26.07538
G1 X131.284 Y146.783 E26.18125
G1 X131.244 Y147.551 E26.21961
G1 X131.125 Y148.311 E26.25799
G1 X130.927 Y149.054 E26.29635
G1 X130.653 Y149.773 E26.33474
G1 X130.306 Y150.459 E26.3731
G1 X129.89 Y151.106 E26.41147
G1 X129.409 Y151.706 E26.44984
G1 X128.868 Y152.253 E26.48822
G1 X128.273 Y152.741 E26.52661
G1 X127.631 Y153.164 E26.56497
G1 X126.948 Y153.519 E26.60337
G1 X126.233 Y153.8 E26.6417
G1 X125.491 Y154.006 E26.68012
G1 X124.733 Y154.134 E26.71847
G1 X123.688 Y154.18 E26.77065
G1 X121.305 Y154.117 E26.88958
G1 X120.911 Y154.096 E26.90927
G1 X118.535 Y153.906 E27.02819
G1 X118.142 Y153.864 E27.04791
G1 X115.778 Y153.547 E27.1669
G1 X115.393 Y153.485 E27.18636
G1 X113.049 Y153.044 E27.30535
G1 X112.66 Y152.96 E27.32521
G1 X110.345 Y152.394 E27.4441
G1 X109.964 Y152.29 E27.46381
G1 X107.681 Y151.601 E27.58278
G1 X107.309 Y151.478 E27.60233
G1 X105.065 Y150.669 E27.72133
G1 X104.696 Y150.525 E27.7411
G1 X102.501 Y149.598 E27.85997
G1 X102.148 Y149.438 E27.87931
G1 X100.002 Y148.396 E27.99832
G1 X99.644 Y148.21 E28.01845
G1 X97.56 Y147.054 E28.13735
G1 X97.229 Y146.859 E28.15651
G1 X95.206 Y145.595 E28.27552
G1 X94.872 Y145.374 E28.2955
G1 X92.921 Y144.003 E28.41447
G1 X92.606 Y143.768 E28.43408
G1 X90.73 Y142.295 E28.55307
G1 X90.428 Y142.045 E28.57263
G1 X88.634 Y140.476 E28.69154
G1 X88.342 Y140.206 E28.71138
G1 X86.634 Y138.542 E28.83034
G1 X86.359 Y138.259 E28.85003
G1 X84.742 Y136.506 E28.96901
G1 X84.487 Y136.215 E28.98832
G1 X82.964 Y134.38 E29.10729
G1 X82.716 Y134.065 E29.12729
G1 X81.295 Y132.151 E29.24622
G1 X81.071 Y131.832 E29.26567
G1 X79.753 Y129.846 E29.38458
G1 X79.544 Y129.512 E29.40424
G1 X78.333 Y127.458 E29.5232
G1 X78.141 Y127.111 E29.54299
G1 X77.042 Y124.995 E29.66194
G1 X76.87 Y124.64 E29.68162
G1 X75.886 Y122.47 E29.80049
G1 X75.733 Y122.109 E29.82006
G1 X74.864 Y119.887 E29.93909
G1 X74.731 Y119.517 E29.9587
G1 X73.982 Y117.254 E30.07763
G1 X73.868 Y116.875 E30.09737
G1 X73.241 Y114.575 E30.21631
G1 X73.147 Y114.193 E30.23594
G1 X72.643 Y111.862 E30.35492
G1 X72.57 Y111.474 E30.37461
G1 X72.191 Y109.12 E30.49357
G1 X72.139 Y108.732 E30.5131
G1 X71.885 Y106.361 E30.63206
G1 X71.854 Y105.967 E30.65178
G1 X71.727 Y103.587 E30.77069
G1 X71.716 Y103.193 E30.79035
G1 X71.716 Y100.808 E30.90934
G1 X71.727 Y100.414 E30.92901
G1 X71.854 Y98.033 E31.04796
G1 X71.885 Y97.639 E31.06768
G1 X72.139 Y95.268 E31.18665
G1 X72.191 Y94.88 E31.20618
G1 X72.57 Y92.526 E31.32513
G1 X72.644 Y92.135 E31.34499
G1 X73.149 Y89.804 E31.46398
G1 X73.241 Y89.428 E31.48329
G1 X73.867 Y87.128 E31.60221
G1 X73.982 Y86.746 E31.62211
G1 X74.731 Y84.483 E31.74104
G1 X74.864 Y84.113 E31.76066
G1 X75.733 Y81.891 E31.87969
G1 X75.886 Y81.53 E31.89925
G1 X76.87 Y79.36 E32.01812
G1 X77.042 Y79.005 E32.0378
G1 X78.141 Y76.889 E32.15676
G1 X78.333 Y76.542 E32.17654
G1 X79.544 Y74.488 E32.2955
G1 X79.753 Y74.154 E32.31516
G1 X81.071 Y72.168 E32.43408
G1 X81.295 Y71.849 E32.45352
G1 X82.716 Y69.935 E32.57245
G1 X82.964 Y69.62 E32.59245
G0 F3600 X83.272 Y69.875
G1 F1800 X84.795 Y68.04 E32.71143
G1 X85.037 Y67.763 E32.72978
G1 X86.655 Y66.01 E32.84879
G1 X86.913 Y65.746 E32.86721
G1 X88.62 Y64.082 E32.98614
G1 X88.898 Y63.825 E33.00503
G1 X90.692 Y62.256 E33.12393
G1 X90.977 Y62.019 E33.14242
G1 X92.853 Y60.546 E33.26142
G1 X93.151 Y60.325 E33.27993
G1 X95.102 Y58.954 E33.3989
G1 X95.418 Y58.745 E33.4178
G1 X97.441 Y57.481 E33.53681
G1 X97.754 Y57.296 E33.55495
G1 X99.838 Y56.14 E33.67384
G1 X100.176 Y55.964 E33.69285
G1 X102.322 Y54.922 E33.81187
G1 X102.657 Y54.77 E33.83023
G1 X104.852 Y53.843 E33.9491
G1 X105.201 Y53.707 E33.96779
G1 X107.445 Y52.898 E34.08679
G1 X107.797 Y52.782 E34.10528
G1 X110.08 Y52.093 E34.22426
G1 X110.44 Y51.994 E34.24289
G1 X112.755 Y51.428 E34.36178
G1 X113.123 Y51.349 E34.38056
G1 X115.467 Y50.908 E34.49955
G1 X115.831 Y50.849 E34.51795
G1 X118.195 Y50.532 E34.63695
G1 X118.567 Y50.492 E34.65561
G1 X120.943 Y50.302 E34.77453
G1 X121.316 Y50.282 E34.79317
G1 X123.699 Y50.219 E34.9121
G1 X124.447 Y50.24 E34.94943
G1 X125.188 Y50.34 E34.98673
G1 X125.915 Y50.518 E35.02408
G1 X126.618 Y50.773 E35.06138
G1 X127.29 Y51.101 E35.09869
G1 X127.923 Y51.5 E35.13602
G1 X128.51 Y51.964 E35.17335
G1 X129.044 Y52.487 E35.21064
G1 X129.52 Y53.065 E35.248
G1 X129.931 Y53.69 E35.28532
G1 X130.272 Y54.355 E35.3226
G1 X130.541 Y55.053 E35.35992
G1 X130.734 Y55.776 E35.39726
G1 X130.849 Y56.515 E35.43457
G1 X130.884 Y57.217 E35.46963
G1 X130.884 Y59.34 E35.57555
G1 X130.844 Y60.087 E35.61287
G1 X130.725 Y60.825 E35.65017
G1 X130.527 Y61.547 E35.68752
G1 X130.254 Y62.243 E35.72482
G1 X129.907 Y62.906 E35.76215
G1 X129.492 Y63.529 E35.7995
G1 X129.013 Y64.103 E35.8368
G1 X128.476 Y64.624 E35.87412
G1 X127.886 Y65.083 E35.91142
